source/img/svg/fb-icon.svg

<svg width="7" height="15" viewBox="0 0 7 15" fill="none" xmlns="http://www.w3.org/2000/svg">
<path d="M1.46205 2.80714C1.46205 3.17241 1.46205 4.80276 1.46205 4.80276H0V7.24301H1.46205V14.4946H4.46543V7.24321H6.48083C6.48083 7.24321 6.66958 6.07313 6.76107 4.79376C6.49876 4.79376 4.47678 4.79376 4.47678 4.79376C4.47678 4.79376 4.47678 3.3741 4.47678 3.12526C4.47678 2.87589 4.80424 2.54044 5.12789 2.54044C5.45094 2.54044 6.13275 2.54044 6.76424 2.54044C6.76424 2.2082 6.76424 1.06022 6.76424 8.71691e-09C5.92121 8.71691e-09 4.96212 8.71691e-09 4.53936 8.71691e-09C1.38782 -0.000168489 1.46205 2.44251 1.46205 2.80714Z" fill="#A07B50"/>
</svg>

<svg width="7" height="15" fill="none" xmlns="http://www.w3.org/2000/svg"><path d="M1.462 2.807v1.996H0v2.44h1.462v7.252h3.003V7.243h2.016s.189-1.17.28-2.45H4.477V3.126c0-.25.327-.585.65-.585h1.637V0H4.54C1.388 0 1.462 2.443 1.462 2.807z" fill="#A07B50"/></svg>
